X: 75
%
U:~=!turn!
T: Caillach liath Rasar
T: Cailleach liath Ratharsair
T: The Grey Old Lady of Raasay
C:Pipe tune
O:Scotland
B:Keith Norman MacDonald : "The Skye collection of the best reels & strathspeys extant" : 1887
Z:Ralph Palmer
R:Reel
M:C
L:1/8
K:B aeolian
e | AA g2 aeef | g2 ag fdde | cc g2 aeeg | fdec BBB :| a | cAAA ec{/G}ce |
f2 AA ecca | [1 cAAA ecce | fdec BBB :| [2 cA d2 ecce | fAec BBB |]


